X:1
T:Title
%%score ( 1 2 ) { 3 | ( 4 5 ) }
L:1/8
Q:1/4=95
M:4/4
K:F
V:1 treble nm="Grand Piano, Soprano"
V:2 treble 
V:3 bass nm="Choir Pad, Abide with Me (Perkins)"
V:4 bass 
V:5 bass 
V:1
 C2 F2- FGA_A | AF F2 E4 | EF G2- GG A2 | G2 F4 C2 | C2 F2- FGA_A | Ac c2 B4 | FG A2 _A=A B2 | %7
w: By~S~.~M.~Chase * * * * *|||||||
 E2 F6 | c2 d<c c2- [Ac-]<[Ac] | z2 z/ A3/2- A2 A2- | A2 z2 z4 | z2 c6 | z2 z/ c3/2- c3- c/ z/ | %13
w: ||||||
 z2 z/ A3/2- A3- A/ z/ | [Fd]2 [Fc][FA]- [FA]F [EA]2 | [EG]2 F6- | F2 z2 z4 |] %17
w: ||||
V:2
 x8 | x8 | x8 | x8 | x8 | x8 | x8 | x8 | z4 A2 z2 | A2 .B2 F2 F<F | %10
 [Fc]2 [Fd]<[Fd]- [Fd]>[Fd] [Ec]2 | [F=B]2 E2 E>F G2 | c2 .d2 A2 A<A | A2 .B2 F2 F<F | x8 | x8 | %16
 x8 |] %17
V:3
 A,2 A,2- A,B,C=B, | CA, A,2 G,4 | G,A, B,2- B,B, C2 | B,2 A,6 | A,2 A,2- A,B,[K:treble]C=B, | %5
 C_E =E2 D4 | ^C2 =C2 =B,C D2 | C=B, A,6 | z4 C2 C<C | C2 D<C C2 C<C | A,2 A,<A,- A,>A, G,2 | %11
 G,2 G,2 G,>A, B,2 | z4[K:treble] C2 C<C | D2 D<C C2 C<C | B,2 A,C- CA, C2 | B,2 A,6- | %16
 A,2 z2 z4 |] %17
V:4
 z2 F,,6- | F,,2 C,6 | z2 C,,6- | C,,2 F,,6 | z2 F,,6- | F,,2 B,,6 | z2 C,6 | z8 | z4 F,2 F,<F, | %9
 z4 F,2 F,<F, | F,2 D,<D,- D,>F, z2 | G,,2 C,6 | z4 F,2 F,<F, | z4 F,2 F,<F, | %14
 B,,2 C,C,- C,C, C,2 | C,2 F,6- | F,2 z2 z4 |] %17
V:5
 x8 | x8 | x8 | x8 | x8 | x8 | z4 z2 C,,2- | C,,2 F,,6 | x8 | x8 | x8 | x8 | x8 | x8 | x8 | x8 | %16
 x8 |] %17

